X:1
T:Title
%%score 1 { 2 | 3 }
L:1/8
Q:1/4=95
M:3/4
K:Ab
V:1 treble nm="Grand Piano, Soprano"
V:2 bass nm="Choir Pad, Mendocino, 87.87 D"
V:3 bass 
V:1
 [CE]>[CE] [EA]3 [EA] | [Ec]>[DB] [DB]2 [CA]2 | [EA]>[EA] [FA]3 [FA] | [Fd]>[Fd] [Ec]4 | %4
w: By~John~Henry~Showalter,~1904 * * *||||
 [Ec]>[Ec] [=Ec]3 [EG] | [=Ec]>[EB] [FB]2 [FA]2 | [FB]>[Fd] [Ec]3 [EA] | [EG]>[EB] [EA]4 | %8
w: ||||
 [EG]>[EA] [GB]3 [GB] | [Ac]>[EB] [EB]2 [EA]2 | [EA]>[Ec] [Ae]3 [Ac] | A>[Ac] [GB]4 | %12
w: ||||
 [Ge]>[Ge] [Ae]3 [Ac] | [Ad]>[Ac] [FB]2 [FA]2 | [DF]>[DF] [CE]3 [EA] | [EB]>[Ec] [EA]4- | %16
w: ||||
 [EA]4 z2 |] %17
w: |
V:2
 A,>A, C3 A, | A,>G, A,2 A,2 | A,>A, A,3 A, | A,>A, A,4 | A,>A, G,3[K:treble] C | C>C C2 C2 | %6
 D>[K:bass]A, A,3 B, | A,>D[K:treble] C4 | B,>C D3 D | E>D D2 C2 | C>A, C3 E | E>E E4 | %12
 B,>B, C3 E | F>E D2 D2 | A,>A, A,3 C | D>E C4- | C4 z2 |] %17
V:3
 A,,>A,, A,,3 C, | E,>E, A,,2 A,,2 | C,>C, D,3 D, | D,>D, A,,4 | A,,>A,, C,3 C, | C,>C, F,2 F,2 | %6
 D,>D, E,3 E, | E,>E, A,,4 | E,>E, E,3 E, | E,>E, A,2 A,2 | A,2 A,3 A, | C>A, E,4 | E,>E, A,3 A, | %13
 A,>A, D,2 D,2 | D,>D, E,3 E, | E,>E, A,,4- | A,,4 z2 |] %17

